public/assets/icons/mood.svg

<svg height="40" viewBox="0 0 50 40" width="50" xmlns="http://www.w3.org/2000/svg"><path d="m30.066.428c-1.756 0-3.447.254-5.066.688-1.619-.435-3.312-.688-5.066-.688-10.792 0-19.572 8.78-19.572 19.572s8.78 19.572 19.572 19.572c1.754 0 3.447-.254 5.066-.688 1.619.435 3.31.688 5.066.688 10.791 0 19.572-8.78 19.572-19.572s-8.781-19.572-19.572-19.572zm-5.066 35.345c-6.666-2.146-11.505-8.402-11.505-15.773s4.839-13.627 11.505-15.773c6.666 2.146 11.506 8.402 11.506 15.773s-4.84 13.627-11.506 15.773zm-21.638-15.773c0-9.053 7.299-16.422 16.318-16.56-5.507 3.467-9.185 9.585-9.185 16.56s3.679 13.093 9.186 16.56c-9.02-.138-16.319-7.507-16.319-16.56zm26.958 16.56c5.508-3.468 9.186-9.585 9.186-16.56s-3.678-13.092-9.186-16.56c9.02.138 16.319 7.508 16.319 16.56s-7.299 16.422-16.319 16.56z" fill="#142b6f" transform=""/></svg>

<svg width="50px" height="40px" viewBox="0 0 50 40" version="1.1" xmlns="http://www.w3.org/2000/svg" xmlns:xlink="http://www.w3.org/1999/xlink">
    <!-- Generator: Sketch 50.2 (55047) - http://www.bohemiancoding.com/sketch -->
    <desc>Created with Sketch.</desc>
    <defs></defs>
    <g id="Page-1" stroke="none" stroke-width="1" fill="none" fill-rule="evenodd">
        <g id="Desktop" transform="translate(-484.000000, -588.000000)" fill="#142B6F" fill-rule="nonzero">
            <g id="Group-4" transform="translate(441.000000, 584.000000)">
                <g id="Group-3" transform="translate(0.000000, 4.000000)">
                    <g id="icon-mood" transform="translate(43.000000, 0.000000)">
                        <path d="M30.066,0.428 C28.31,0.428 26.619,0.682 25,1.116 C23.381,0.681 21.688,0.428 19.934,0.428 C9.142,0.428 0.362,9.208 0.362,20 C0.362,30.792 9.142,39.572 19.934,39.572 C21.688,39.572 23.381,39.318 25,38.884 C26.619,39.319 28.31,39.572 30.066,39.572 C40.857,39.572 49.638,30.792 49.638,20 C49.638,9.208 40.857,0.428 30.066,0.428 Z M25,35.773 C18.334,33.627 13.495,27.371 13.495,20 C13.495,12.629 18.334,6.373 25,4.227 C31.666,6.373 36.506,12.629 36.506,20 C36.506,27.371 31.666,33.627 25,35.773 Z M3.362,20 C3.362,10.947 10.661,3.578 19.68,3.44 C14.173,6.907 10.495,13.025 10.495,20 C10.495,26.975 14.174,33.093 19.681,36.56 C10.661,36.422 3.362,29.053 3.362,20 Z M30.32,36.56 C35.828,33.092 39.506,26.975 39.506,20 C39.506,13.025 35.828,6.908 30.32,3.44 C39.34,3.578 46.639,10.948 46.639,20 C46.639,29.052 39.34,36.422 30.32,36.56 Z" id="Shape"></path>
                    </g>
                </g>
            </g>
        </g>
    </g>
</svg>
